X:1
T: Ouverture n° 3 en Ré Majeur BWV 1068
T:Air.- 2nd Mouvement
T:JS Bach
%%score 1 2 { 3 4 }
L:1/8
M:4/4
K:Eb
V:1 treble transpose=12 nm="Flûte à bec soprano" snm="Fl. soprano"
V:2 treble nm="Trompette en Do" snm="Tromp. Do"
V:3 treble nm="Orgue" snm="Orgue"
V:4 bass nm="Orgue"
V:1
 z8[Q:1/4=35] |"^A"!mp! d8- | dg/e/ c/B/=A/B/ A>G F2 | (f4 f/)d/(A/G/) (c/=B/)(f/e/) | %4
w: |Ad,|_ _ _ _ _ _ te Do- mi- ne,|Ad te le- vá- vi á- * ni- *|
 e4- e/c/(G/F/) (B/=A/)(e/d/) | d3 =e/f/ BB/4c/4d/- d/c/(c/B/) | =A/G/G/4A/4B/- BA/G/ F4 | %7
w: mam, _ le- vá- vi á- * ni- *|mam me- * am le- * * vá- * vi, _|á- * ni- * mam, _ me- * am.|
"^B"!pp! d8- | d!p!g/e/ c/B/=A/B/ A>G F2 |!mp! (((f4 f/)))d/(A/G/) (c/=B/)(f/e/) | %10
w: Ad,|_ _ _ _ _ _ te Do- mi- ne,|Ad te le- vá- vi á- * ni- *|
 e4- e/c/(G/F/) (B/=A/)(e/d/) | d3 =e/f/ BB/4c/4(d/ d/)c/(c/B/) | =A/G/G/4A/4B/- BA/G/ F4 | %13
w: mam, _ le- vá- vi á- * ni- *|mam me- * am le- * * vá- * vi, _|á- * ni- * mam, _ me- * am.|
"^C" (=A2 A/)B/4A/4G/4A/4F/ f3 _A | Gg- g/f/e/d/ e2- e/4(d/4c/4B/4)=A/G/ | %15
w: á- * * * * * ni- mam á-|ni- mam, _ me- * * am, * ad, _ _ _ _|
 ^F/G/=A- A/B/c- c/d/e- ed | c/B/=A/G/ (A/B/4c/4)B/A/ G4 | (B2 B/)d/c/B/ g2- gf/=e/ | %18
w: _ _ _ _ _ _ _ _ _ _ _|* * * * * * * * * te|le- * vá- * * * * * *|
 d/4c/4f/F (G3/2=A/4B/4) A>G F2 | B3 (d/c/) c3 (e/d/) | d3 (f/e/) e4 | %21
w: * * * * * * * * * vi|á- * ni- mam á- ni-|mam á- ni- mam|
 (F2 F/)=A/c/e/ e/c/d- d-d/e/4f/4 | B2- B/d/f/a/ g3 B | =A/c/ e2 G Fc/d/4e/4 e/dc/ | %24
w: me- * * * * * * am, _ _ me- *|am, _ _ _ _ _ _|_ _ _ _ _ _ _ _ _ _ _|
 B/4=A/4GA/ BA/B/ !fermata!B4 |] %25
w: |
V:2
 z8 |!mp! B8- | B2 =A2 F4- | FA/G/ Af/A/ G2 z2 | Gc/B/ c/d/e/c/ F2 z2 | F4- F=E/F/ GE | F3 =E C4 | %7
w: |Ad,|_ te Do-|* * * * * mi- ne,|le- vá- * * * * * vi|á- * * * ni- mam|me- * am.|
!pp! B8- | B2!p! =A2 F4- | F!mp!A/G/ Af/A/ G2 z2 | Gc/B/ c/d/e/c/ F2 z2 | F4- F=E/F/ GE | %12
w: Ad,|_ te Do-|* * * * * mi- ne,|le- vá- * * * * * vi|á- * * * ni- mam|
 F3 =E C4 | F4- F/G/A- A/G/F/E/ | D3 =B c4- | c4- c/B/=A/G/ ^F/G/A | GGG^F D4 | %17
w: me- * am.|á- * * * * * * ni-|mam me- am,|_ _ me- * * * * am|á- ni- mam, ad te|
 C2 D2 GC/D/ =E/F/G- | G F2 =E F4- | FG/A/ G/=A/B- BA/G/ A/=B/c- | c=B/=A/ B/c/d- d/B/c/G/ c2- | %21
w: le- va- vi- á- * * ni- mam,|_ le- vá- vi,|_ á- * * ni- mam, _ á- * * ni- mam,|_ á- * * ni- mam, _ á- * ni- mam,|
 c/=A/c/F/ AF- FA/B/ B2- | BC D2 E4- | EG c2- c/B/=A/G/ FG | F2 (E/D/E) !fermata!D4 |] %25
w: _ me- * * * * * * * am,|_ le- vá- vi,|_ á- * * * * * * ni-|mam me- * * am.|
V:3
 z8 |!p! Bb=a=A GgfF | Ee=e=E Ff_e_E | DdcC =B,=BGg | CcBB, =A,=AFf | Bb=a=A Gg=ec | %6
w: |Boom simile * * * * * *|||||
 fBcC F/G/=A/B/ c/e/d/c/ |!pp! Bb=a=A GgfF | Ee=e=E Ff_e_E |!p! DdcC =B,=BGg | CcBB, =A,=AFf | %11
w: |Boom simile * * * * * *||||
 Bb=a=A Gg=ec | fBcC F4 | FfeE DdcC | =B,=BdG cc'b_B | =A=agG ^FGAF | Gecd GgfF | =E=edD CcBB, | %18
w: |||||||
 =A,=ABc FfeE | DdeE =E=efF | ^F^fgG cc'bB | =A=afa bB_A_a | gGFf eEDd | cCB,B =AFBe | %24
w: ||||||
 fefF !fermata!B,4 |] %25
w: |
V:4
 z8 |!pp! F2- F2 G4 | G,2 C2 C4 | C =B,2 C D z z2 | C G,2 C- C z z2 | B,3 C DB,G,C- | CDG,C =A,4 | %7
!ppp! F2- F2 G4 | G,2 C2 C4 |!pp! C =B,2 C D z z2 | C G,2 C- C z z2 | B,3 C DB,G,C | CDG,C =A,4 | %13
 F,4 F,/G,/A,- A,/G,/F,/E,/ | D,3 =B, C4- | C4- C/B,/=A,/G,/ ^F,/G,/A, | G,G,G,^F, D,4 | %17
 C,2 D,2 G,,C,/D,/ =E,/F,/G, | G, F,2 =E, F,4- | F,G,/A,/ G,/=A,/B,- B,A,/G,/ A,/=B,/C- | %20
 C=B,/=A,/ B,/C/D- D/B,/C/G,/ C,2- | C,/=A,,/C,/F,/ =A,F,- F,A,/B,/ B,,2- | B,,C, D,2 E,4- | %23
 E,G, C2- C/B,/=A,/G,/ F,G, | F,2 E,/D,/E, !fermata![B,DF]4 |] %25

